scenes/tracker/img/location-blue.svg

<svg xmlns="http://www.w3.org/2000/svg" viewBox="0 0 13 13"><path d="M6.5 0C2.9 0 0 2.9 0 6.5S2.9 13 6.5 13 13 10.1 13 6.5 10 0 6.5 0zm4.4 3.9H9c-.2-.8-.5-1.6-.9-2.3 1.2.4 2.2 1.2 2.8 2.3zM6.5 1.3c.5.8.9 1.7 1.2 2.6H5.2c.3-.9.7-1.8 1.3-2.6zm-5 6.5c-.1-.4-.2-.9-.2-1.3s.1-.9.2-1.3h2.2c-.1.4-.1.8-.1 1.3 0 .4 0 .9.1 1.3H1.5zM2 9.1h1.9c.2.8.5 1.6.9 2.3C3.6 11 2.6 10.1 2 9.1zm1.9-5.2H2C2.6 2.8 3.6 2 4.8 1.6c-.4.7-.7 1.5-.9 2.3zm2.6 7.7C6 10.8 5.5 10 5.3 9h2.5c-.4 1-.8 1.8-1.3 2.6zM8 7.8H5c-.1-.5-.1-.9-.1-1.3s0-.9.1-1.3h3c0 .4.1.8.1 1.3 0 .4-.1.8-.1 1.3zm.1 3.6c.4-.8.7-1.5.9-2.3h2c-.7 1-1.7 1.9-2.9 2.3zm1.2-3.6c.1-.4.1-.9.1-1.3s0-.9-.1-1.3h2.2c.1.4.2.8.2 1.3 0 .4-.1.9-.2 1.3H9.3z" fill="#97d8ff"/></svg>

<svg xmlns="http://www.w3.org/2000/svg" xmlns:xlink="http://www.w3.org/1999/xlink" version="1.1" id="Layer_1" x="0px" y="0px" viewBox="0 0 13 13" style="enable-background:new 0 0 13 13;" xml:space="preserve"><g id="Layer_10"><g id="New_Symbol_58"></g><g id="_x27__2_2_"></g><g id="_x27__2_1_"></g><g id="_x27__2"></g><g id="New_Symbol_57"></g><g id="New_Symbol_2"><g id="New_Symbol_36"><g id="New_Symbol_76"></g><g id="New_Symbol_79"></g><g id="New_Symbol_80"></g></g></g><g id="santa"></g><g id="New_Symbol_70"><g id="New_Symbol_69"><g id="New_Symbol_2_1_"><g id="New_Symbol_36_1_"></g></g></g></g><g id="New_Symbol_27"></g><g id="New_Symbol_26"></g><g id="New_Symbol_29"></g><g id="New_Symbol_32"><g id="New_Symbol_32_1_"><g id="New_Symbol_111"></g></g></g><g><path style="fill:#97D8FF;" d="M6.5 0C2.9 0 0 2.9 0 6.5S2.9 13 6.5 13S13 10.1 13 6.5S10 0 6.5 0z M10.9 3.9H9 C8.8 3.1 8.5 2.3 8.1 1.6C9.3 2 10.3 2.8 10.9 3.9z M6.5 1.3C7 2.1 7.4 3 7.7 3.9H5.2C5.5 3 5.9 2.1 6.5 1.3z M1.5 7.8 C1.4 7.4 1.3 6.9 1.3 6.5s0.1-0.9 0.2-1.3h2.2C3.6 5.6 3.6 6 3.6 6.5c0 0.4 0 0.9 0.1 1.3H1.5z M2 9.1h1.9 c0.2 0.8 0.5 1.6 0.9 2.3C3.6 11 2.6 10.1 2 9.1z M3.9 3.9H2C2.6 2.8 3.6 2 4.8 1.6C4.4 2.3 4.1 3.1 3.9 3.9z M6.5 11.6 C6 10.8 5.5 10 5.3 9h2.5C7.4 10 7 10.8 6.5 11.6z M8 7.8H5C4.9 7.3 4.9 6.9 4.9 6.5s0-0.9 0.1-1.3h3C8 5.6 8.1 6 8.1 6.5 C8.1 6.9 8 7.3 8 7.8z M8.1 11.4C8.5 10.6 8.8 9.9 9 9.1h2C10.3 10.1 9.3 11 8.1 11.4z M9.3 7.8c0.1-0.4 0.1-0.9 0.1-1.3 s0-0.9-0.1-1.3h2.2c0.1 0.4 0.2 0.8 0.2 1.3c0 0.4-0.1 0.9-0.2 1.3H9.3z"/></g><g id="_x27__2_3_"></g><g id="New_Symbol_109"><g id="New_Symbol_112"></g></g></g><g id="Notes"><g id="_x27__2_4_"></g><g id="New_Symbol_109_2_"></g></g><g id="Grid"></g><g id="Layer_7"></g><g id="Layer_8"></g><g id="Layer_15"></g><g id="Layer_16"><g id="New_Symbol_114"></g><g id="New_Symbol_109_1_"></g></g><g id="Layer_27"></g><g id="Layer_28"></g></svg>
